icons/lines/filter-edit.svg

<svg xmlns="http://www.w3.org/2000/svg" width="24" height="24" viewBox="0 0 24 24" fill="none" stroke="currentColor" stroke-width="2" stroke-linecap="round" stroke-linejoin="round" >
  <path d="M13.4095 20.79L11.9996 21.7C10.6896 22.51 8.86957 21.6 8.86957 19.98V14.63C8.86957 13.92 8.46957 13.01 8.05957 12.51L4.21954 8.47C3.70954 7.96 3.30957 7.06001 3.30957 6.45001V4.13C3.30957 2.92 4.21959 2.01001 5.32959 2.01001H18.6696C19.7796 2.01001 20.6896 2.92 20.6896 4.03V6.25C20.6896 7.06 20.1796 8.07001 19.6796 8.57001" stroke-miterlimit="10"/>
  <path d="M17.0802 11.89L13.5401 15.43C13.4001 15.57 13.2701 15.83 13.2401 16.02L13.0501 17.37C12.9801 17.86 13.3202 18.2 13.8102 18.13L15.1601 17.94C15.3501 17.91 15.6202 17.78 15.7502 17.64L19.2901 14.1C19.9001 13.49 20.1901 12.78 19.2901 11.88C18.4001 10.99 17.6902 11.28 17.0802 11.89Z" stroke-miterlimit="10"/>
  <path d="M16.5801 12.39C16.8801 13.47 17.72 14.31 18.8 14.61" stroke-miterlimit="10"/>
  </svg>

<svg xmlns="http://www.w3.org/2000/svg" width="24" height="24" viewBox="0 0 24 24" fill="none" stroke="currentColor" stroke-width="2" stroke-linecap="round" stroke-linejoin="round">
  <path d="M13.41 20.79 12 21.7c-1.31.81-3.13-.1-3.13-1.72v-5.35c0-.71-.4-1.62-.81-2.12L4.22 8.47c-.51-.51-.91-1.41-.91-2.02V4.13c0-1.21.91-2.12 2.02-2.12h13.34a2 2 0 0 1 2.02 2.02v2.22c0 .81-.51 1.82-1.01 2.32" />
  <path d="M13.54 15.43a1.23 1.23 0 0 0-.3.59l-.19 1.35c-.07.49.27.83.76.76l1.35-.19a1.2 1.2 0 0 0 .59-.3l3.54-3.54c.61-.61.9-1.32 0-2.22-.89-.89-1.6-.6-2.21.01z" />
  <path d="M16.58 12.39a3.19 3.19 0 0 0 2.22 2.22" />
</svg>
